public/images/icons/32x32/arts_32_purple.svg

<svg height="32" viewBox="0 0 32 32" width="32" xmlns="http://www.w3.org/2000/svg"><path d="m1.69013333 18.3773333c-1.3168 1.3154667-1.5768 4.1832-1.60266666 4.5056l-.08746667 1.1170631 1.1168-.0879964c.32346667-.0261333 3.19626667-.2904 4.50533333-1.5986667.86933334-.8696 1.33546667-1.9194666 1.36-2.8642666l.4016-.3136c1.93893334-1.5082667 4.96079997-4.2722667 8.08213337-7.3912 2.3632-2.36293337 4.5736-4.79653337 6.2245333-6.8522667 2.0608-2.56773333 2.7925333-3.76986667 1.9936-4.56906667-.8088-.8096-2.0109333-.07786666-4.5792 1.98053334-2.0594667 1.6512-4.4941333 3.86026666-6.8557333 6.22026666-3.1250667 3.12346667-5.89013337 6.14319997-7.3970667 8.07839997l-.3272.4176c-.93626667.0322667-1.97493333.4973334-2.83466667 1.3576zm6.35946667-3.7496 1.31093333 1.3114667c-.96053333.8573333-1.82613333 1.5941333-2.54826666 2.1626667l-.928-.9285334c.56986666-.7208 1.30613333-1.5856 2.16533333-2.5456zm6.592-3.708c-1.6698667 1.6688-3.3074667 3.232-4.76133333 4.5506667l-1.36186667-1.3624c1.3192-1.4525333 2.8832-3.0893333 4.5541333-4.75973333 2.3322667-2.33093334 4.7333334-4.50986667 6.7608-6.1352 1.9664-1.57573334 2.7144-1.95173334 2.9856-2.03546667-.0837333.2712-.4594666 1.01866667-2.0370666 2.9848-1.6253334 2.02373333-3.8056 4.42373333-6.1402667 6.7573333zm-12.128 8.2824c1.01733333-1.0176 2.3584-1.3317333 2.98826667-.7016.6296.6296.31386666 1.9709334-.70373334 2.9882667-.75866666.7578667-2.51226666 1.124-3.52426666 1.2373333.10426666-.9026666.4592-2.7442666 1.23973333-3.524z" fill="#1e1169" transform="translate(4 4)"/></svg>

<?xml version="1.0" encoding="UTF-8"?>
<svg width="32px" height="32px" viewBox="0 0 32 32" version="1.1" xmlns="http://www.w3.org/2000/svg" xmlns:xlink="http://www.w3.org/1999/xlink">
    <title>icone/32x32/art_32_purple</title>
    <g id="icone/32x32/art_32_purple" stroke="none" stroke-width="1" fill="none" fill-rule="evenodd">
        <g id="noun_Brush_50478" transform="translate(4.000000, 3.999996)" fill="#1E1169" fill-rule="nonzero">
            <path d="M1.69013333,18.377337 C0.373333333,19.6928036 0.113333333,22.560537 0.0874666667,22.882937 L0,24 L1.1168,23.9120036 C1.44026667,23.8858703 4.31306667,23.6216036 5.62213333,22.313337 C6.49146667,21.443737 6.9576,20.3938703 6.98213333,19.4490703 L7.38373333,19.1354703 C9.32266667,17.6272036 12.3445333,14.8632036 15.4658667,11.7442703 C17.8290667,9.38133696 20.0394667,6.94773696 21.6904,4.89200363 C23.7512,2.32427029 24.4829333,1.12213696 23.684,0.322936959 C22.8752,-0.486663041 21.6730667,0.245070293 19.1048,2.30347029 C17.0453333,3.95467029 14.6106667,6.16373696 12.2490667,8.52373696 C9.124,11.6472036 6.35893333,14.666937 4.852,16.602137 L4.5248,17.019737 C3.58853333,17.0520036 2.54986667,17.5170703 1.69013333,18.377337 Z M8.0496,14.627737 L9.36053333,15.9392036 C8.4,16.796537 7.5344,17.533337 6.81226667,18.1018703 L5.88426667,17.173337 C6.45413333,16.452537 7.1904,15.587737 8.0496,14.627737 Z M14.6416,10.919737 C12.9717333,12.588537 11.3341333,14.151737 9.88026667,15.4704036 L8.5184,14.1080036 C9.8376,12.6554703 11.4016,11.0186703 13.0725333,9.34827029 C15.4048,7.01733696 17.8058667,4.83840363 19.8333333,3.21307029 C21.7997333,1.63733696 22.5477333,1.26133696 22.8189333,1.17760363 C22.7352,1.44880363 22.3594667,2.19627029 20.7818667,4.16240363 C19.1565333,6.18613696 16.9762667,8.58613696 14.6416,10.919737 Z M2.5136,19.202137 C3.53093333,18.184537 4.872,17.8704036 5.50186667,18.500537 C6.13146667,19.130137 5.81573333,20.4714703 4.79813333,21.4888036 C4.03946667,22.2466703 2.28586667,22.6128036 1.27386667,22.726137 C1.37813333,21.8234703 1.73306667,19.9818703 2.5136,19.202137 Z" id="Shape"></path>
        </g>
    </g>
</svg>
